X:1
T:Bullock's Hornpipe
Z:robin.beech@mcgill.ca
S:John Offord
N:John Offord, Reproduced with Permission
M:3/2
L:1/8
K:Am
A4 c4 d2dc | d2g2 g2G2 BcdB | A4 c4 d2dc | e2a2 a2e2 BcdB ::
A2a2 a2gf e2dc | B2g2 g2G2 BcdB | A2a2 a2gf e2dc | e2a2 a2A2 BcdB ::
A2B2 E2A2 c4 | B2g2 g2G2 BcdB | A2B2 E2A2 c4 | e2a2 a2A2 BcdB :|
